X: 1
T:the Garden of Daisies
R:Set Dance
O:Ireland
M:4/4
K:D
FG|\
a2af gbag|fefa gfef|dcde fdec|dedc AGFG|
AB (3=cBA d^c AG|FEFG AB (3=cBA|\
dcdf edce|d2dc d2::
A2|\
dcde fefg|a2af defg|a2af gbag|fgfe defg|
a2af gbag|fefa gfef|dcde fdec|dedc A2fg|
a2af gbag|fefa gfef|dcde fdec|dedc AGFG|
AB (3=cBA d^cAG|FEFG AB (3=cBA|\
dcdf edce|d2dc d2:|
